images/synthetix_seth.svg

<svg height="250" viewBox="0 0 250 250" width="250" xmlns="http://www.w3.org/2000/svg" xmlns:xlink="http://www.w3.org/1999/xlink"><filter id="a" height="100%" width="100%" x="0%" y="0%"><feColorMatrix in="SourceGraphic" type="matrix" values="0 0 0 0 1 0 0 0 0 1 0 0 0 0 1 0 0 0 1 0"/></filter><mask id="b"><g filter="url(#a)"><path d="m0 0h250v250h-250z" fill-opacity=".5"/></g></mask><clipPath id="c"><path d="m0 0h250v250h-250z"/></clipPath><path d="m125 250c69.035156 0 125-55.964844 125-125s-55.964844-125-125-125-125 55.964844-125 125 55.964844 125 125 125zm0 0" fill="#6e97ff"/><g fill="#1e1a31"><path d="m149.167969 168.363281v-23.5h6.449219v16h7.847656v-13h6.152344v13h8.097656v-16.550781h6.453125v24.050781zm0 0"/><path d="m149.167969 142.285156v-27.703125h6.449219v10.101563h28.550781v7.5h-28.550781v10.101562zm0 0"/><path d="m149.167969 110.5v-7.5h14.046875v-13.898438h-14.046875v-7.5h35v7.5h-14.453125v13.898438h14.453125v7.5zm0 0"/></g><g clip-path="url(#c)" mask="url(#b)"><path d="m67.851562 173.773438-10.402343-7.421876 65.429687-90.910156 10.40625 7.421875zm0 0" fill="#1e1a31" fill-rule="evenodd"/></g><path d="m101.558594 118.625h3.492187c16.078125 0 29.117188 12.992188 29.117188 29.019531 0 16.027344-13.039063 29.023438-29.117188 29.023438h-42.820312c-3.535157 0-6.398438-2.855469-6.398438-6.378907 0-3.519531 2.863281-6.375 6.398438-6.375h42.820312c9.015625 0 16.324219-7.28125 16.324219-16.269531 0-8.984375-7.308594-16.269531-16.324219-16.269531h-20.101562c-16.078125 0-29.117188-12.992188-29.117188-29.019531 0-16.027344 13.039063-29.023438 29.117188-29.023438h42.820312c3.53125 0 6.398438 2.855469 6.398438 6.375 0 3.523438-2.867188 6.378907-6.398438 6.378907h-42.820312c-9.015625 0-16.324219 7.28125-16.324219 16.269531 0 8.984375 7.308594 16.269531 16.324219 16.269531h16.605469zm0 0" fill="#1e1a31" fill-rule="evenodd"/></svg>

<svg xmlns="http://www.w3.org/2000/svg" xmlns:xlink="http://www.w3.org/1999/xlink" width="250px" height="250px" viewBox="0 0 250 250" version="1.1">
<defs>
<filter id="alpha" filterUnits="objectBoundingBox" x="0%" y="0%" width="100%" height="100%">
  <feColorMatrix type="matrix" in="SourceGraphic" values="0 0 0 0 1 0 0 0 0 1 0 0 0 0 1 0 0 0 1 0"/>
</filter>
<mask id="mask0">
  <g filter="url(#alpha)">
<rect x="0" y="0" width="250" height="250" style="fill:rgb(0%,0%,0%);fill-opacity:0.5;stroke:none;"/>
  </g>
</mask>
<clipPath id="clip1">
  <rect x="0" y="0" width="250" height="250"/>
</clipPath>
<g id="surface5" clip-path="url(#clip1)">
<path style=" stroke:none;fill-rule:evenodd;fill:rgb(11.764706%,10.196079%,19.215687%);fill-opacity:1;" d="M 67.851562 173.773438 L 57.449219 166.351562 L 122.878906 75.441406 L 133.285156 82.863281 Z M 67.851562 173.773438 "/>
</g>
</defs>
<g id="surface1">
<path style=" stroke:none;fill-rule:nonzero;fill:rgb(43.137255%,59.215689%,100%);fill-opacity:1;" d="M 125 250 C 194.035156 250 250 194.035156 250 125 C 250 55.964844 194.035156 0 125 0 C 55.964844 0 0 55.964844 0 125 C 0 194.035156 55.964844 250 125 250 Z M 125 250 "/>
<path style=" stroke:none;fill-rule:nonzero;fill:rgb(11.764706%,10.196079%,19.215687%);fill-opacity:1;" d="M 149.167969 168.363281 L 149.167969 144.863281 L 155.617188 144.863281 L 155.617188 160.863281 L 163.464844 160.863281 L 163.464844 147.863281 L 169.617188 147.863281 L 169.617188 160.863281 L 177.714844 160.863281 L 177.714844 144.3125 L 184.167969 144.3125 L 184.167969 168.363281 Z M 149.167969 168.363281 "/>
<path style=" stroke:none;fill-rule:nonzero;fill:rgb(11.764706%,10.196079%,19.215687%);fill-opacity:1;" d="M 149.167969 142.285156 L 149.167969 114.582031 L 155.617188 114.582031 L 155.617188 124.683594 L 184.167969 124.683594 L 184.167969 132.183594 L 155.617188 132.183594 L 155.617188 142.285156 Z M 149.167969 142.285156 "/>
<path style=" stroke:none;fill-rule:nonzero;fill:rgb(11.764706%,10.196079%,19.215687%);fill-opacity:1;" d="M 149.167969 110.5 L 149.167969 103 L 163.214844 103 L 163.214844 89.101562 L 149.167969 89.101562 L 149.167969 81.601562 L 184.167969 81.601562 L 184.167969 89.101562 L 169.714844 89.101562 L 169.714844 103 L 184.167969 103 L 184.167969 110.5 Z M 149.167969 110.5 "/>
<use xlink:href="#surface5" mask="url(#mask0)"/>
<path style=" stroke:none;fill-rule:evenodd;fill:rgb(11.764706%,10.196079%,19.215687%);fill-opacity:1;" d="M 101.558594 118.625 L 105.050781 118.625 C 121.128906 118.625 134.167969 131.617188 134.167969 147.644531 C 134.167969 163.671875 121.128906 176.667969 105.050781 176.667969 L 62.230469 176.667969 C 58.695312 176.667969 55.832031 173.8125 55.832031 170.289062 C 55.832031 166.769531 58.695312 163.914062 62.230469 163.914062 L 105.050781 163.914062 C 114.066406 163.914062 121.375 156.632812 121.375 147.644531 C 121.375 138.660156 114.066406 131.375 105.050781 131.375 L 84.949219 131.375 C 68.871094 131.375 55.832031 118.382812 55.832031 102.355469 C 55.832031 86.328125 68.871094 73.332031 84.949219 73.332031 L 127.769531 73.332031 C 131.300781 73.332031 134.167969 76.1875 134.167969 79.707031 C 134.167969 83.230469 131.300781 86.085938 127.769531 86.085938 L 84.949219 86.085938 C 75.933594 86.085938 68.625 93.367188 68.625 102.355469 C 68.625 111.339844 75.933594 118.625 84.949219 118.625 L 101.554688 118.625 C 101.554688 118.625 101.554688 118.625 101.558594 118.625 Z M 101.558594 118.625 "/>
</g>
</svg>
